X:1
T:Title
%%score { ( 1 3 ) | 2 }
L:1/8
M:6/8
K:Bb
V:1 treble nm="Grand Piano"
V:3 treble 
V:2 bass 
V:1
 z3 z2[Q:1/4=100] [DF] | [DF]2 [_D=E] [=DF]2 [DB] | A2 B c2 e | d2 B A2 c | [DB]3 [DF]2 [DF] | %5
 [DF]2 [_D=E] [=DF]2 [DB] | A2 B [Ec]2 [Ge] | d2 B A2 c | [B,DB]3- [B,DB]2 [B,FB] | %9
 [B,GB]2 [B,FA] [B,GB]2 [B,EG] | [B,DF]2 [B,CE] [B,D]2 [B,FB] | [B,GB]2 [B,FA] [B,GB]2 [B,EG] | %12
 [DF]3- [DF]2 [DF] | [DF]2 [_D=E] [=DF]2 [DB] | A2 B [Ec]2 [Ge] | d2 B A2 c | %16
[M:5/8] [B,DB]-[B,DB]- [B,DB]3 |[M:1/8] F |[M:3/4] F3 B2 [B,DB] | A4 z2 | e2 c F2 F | [Dd]4 z2 | %22
 [DF]3 [Fd]3 | [Ec]4 z2 | [Ee]3 [EA]3 |[M:5/8] [DB]-[DB]- [DB]3 |] %26
V:2
 z3 z2 [B,,B,] | [B,,B,]2 [B,,B,] [B,,B,]2 [B,,B,] | [F,C]2 [F,B,D] [F,A,E]2 [F,A,G] | %3
 [F,B,F]2 [F,B,D] [F,CE]2 [F,A,E] | [B,,B,]3- [B,,B,]2 [B,,B,] | %5
 [B,,B,]2 [B,,B,] [B,,B,]2 [B,,B,] | [E,C]2 [D,B,D] [C,A,]2 [C,A,] | %7
 [F,B,F]2 [F,B,D] [F,CE]2 [F,A,E] | B,,3- B,,2 D, | E,2 E, E,2 E, | B,,2 B,, B,,2 D, | %11
 E,2 E, E,2 E, | [B,,B,]3- [B,,B,]2 [B,,B,] | [B,,B,]2 [B,,B,] [B,,B,]2 [B,,B,] | %14
 [E,C]2 [D,B,D] [C,A,]2 [C,A,] | [F,B,F]2 [F,B,D] [F,CE]2 [F,A,E] |[M:5/8] B,,-B,,- B,,3 | %17
[M:1/8] B, |[M:3/4] D3 D2 B,, | F,F, F, [F,C]2 D | E2 E E2 [F,E] | %21
 [B,,F,]B,, B,, [B,,B,]2 [B,,B,] | [B,,B,]2 [B,,B,] [B,,B,]2 [B,,B,] | [E,G,]2 z [E,G,]2 [D,B,] | %24
 [C,C]3 [F,C]3 |[M:5/8] [B,,B,]-[B,,B,]- [B,,B,]3 |] %26
V:3
 x6 | x6 | x6 | x6 | x6 | x6 | x6 | x6 | x6 | x6 | x6 | x6 | x6 | x6 | x6 | x6 |[M:5/8] x5 | %17
[M:1/8] x |[M:3/4] x6 | CC C A2 B | x6 | z B, B, .[Fd]3 | x6 | z2 [E,G,] [Ec]2 [Fd] | x6 | %25
[M:5/8] x5 |] %26

